lib/radiotmp/nrk-refresh.svg

<svg width="24" height="24" viewBox="0 0 24 24" fill="none" xmlns="http://www.w3.org/2000/svg">
<path d="M11.4793 0H13.9206L16.7206 4L13.9206 8H11.4793L13.5793 5.00002H11.9999C8.13395 5.00002 4.99994 8.13403 4.99994 12C4.99994 15.866 8.13395 19 11.9999 19C15.8659 19 18.9999 15.866 18.9999 12C18.9999 10.4013 18.4648 8.92868 17.5626 7.74989L18.7983 6.10223C20.169 7.68111 20.9999 9.74415 20.9999 12C20.9999 16.9706 16.9705 21 11.9999 21C7.02938 21 2.99994 16.9706 2.99994 12C2.99994 7.02946 7.02938 3.00002 11.9999 3.00002H13.5793L11.4793 0Z" fill="black"/>
</svg>

<svg xmlns="http://www.w3.org/2000/svg" viewBox="0 0 24 24"><path fill="#000" d="M11.48 0h2.44l2.8 4-2.8 4h-2.44l2.1-3H12a7 7 0 1 0 5.563 2.75l1.235-1.648A9 9 0 1 1 12 3h1.58l-2.1-3Z"/></svg>
